( Made using CamBam - http://www.cambam.co.uk )
( metalcar 10/31/2015 12:43:26 AM )
( T0 : 0.0 )
G21 G90 G64 G40
G0 Z3.0
( T0 : 0.0 )
T0 M6
( Profile1 )
G17
M3 S1000
G0 X-32.808 Y-16.2892
G0 Z1.4
G1 F300.0 Z0.0
G1 F800.0 X-32.9894 Y-16.6095 Z2.0
G1 X-32.808 Y-16.2892 Z0.0
G0 Z2.0
G1 X-32.611 Y-15.9782 Z0.0
G1 X-32.808 Y-16.2892 Z2.0
G0 Z3.0
G0 X-32.9894 Y-16.6095
G0 Z1.4
G1 F300.0 Z0.0
G1 F800.0 X-33.1549 Y-16.9383 Z2.0
G1 X-32.9894 Y-16.6095 Z0.0
G0 Z3.0
G0 X-33.1549 Y-16.9383
G0 Z1.4
G1 F300.0 Z0.0
G1 F800.0 X-33.3041 Y-17.2749 Z2.0
G1 X-33.1549 Y-16.9383 Z0.0
G0 Z3.0
G0 X-33.3041 Y-17.2749
G0 Z1.4
G1 F300.0 Z0.0
G1 F800.0 X-33.4366 Y-17.6183 Z2.0
G1 X-33.3041 Y-17.2749 Z0.0
G0 Z3.0
G0 X-33.4366 Y-17.6183
G0 Z1.4
G1 F300.0 Z0.0
G1 F800.0 X-33.5521 Y-17.9679 Z2.0
G1 X-33.4366 Y-17.6183 Z0.0
G0 Z3.0
G0 X-33.5521 Y-17.9679
G0 Z1.4
G1 F300.0 Z0.0
G1 F800.0 X-33.6502 Y-18.3226 Z2.0
G1 X-33.5521 Y-17.9679 Z0.0
G0 Z3.0
G0 X-33.6502 Y-18.3226
G0 Z1.4
G1 F300.0 Z0.0
G1 F800.0 X-33.7309 Y-18.6818 Z2.0
G1 X-33.6502 Y-18.3226 Z0.0
G0 Z3.0
G0 X-33.7309 Y-18.6818
G0 Z1.4
G1 F300.0 Z0.0
G1 F800.0 X-33.7938 Y-19.0445 Z2.0
G1 X-33.7309 Y-18.6818 Z0.0
G0 Z3.0
G0 X-33.7938 Y-19.0445
G0 Z1.4
G1 F300.0 Z0.0
G1 F800.0 X-33.8389 Y-19.4099 Z2.0
G1 X-33.7938 Y-19.0445 Z0.0
G0 Z3.0
G0 X-33.8389 Y-19.4099
G0 Z1.4
G1 F300.0 Z0.0
G1 F800.0 X-33.866 Y-19.777 Z2.0
G1 X-33.8389 Y-19.4099 Z0.0
G0 Z3.0
G0 X-33.866 Y-19.777
G0 Z1.4
G1 F300.0 Z0.0
G1 F800.0 X-33.875 Y-20.145 Z2.0
G1 X-33.866 Y-19.777 Z0.0
G0 Z3.0
G0 X-33.875 Y-20.145
G0 Z1.4
G1 F300.0 Z0.0
G1 F800.0 X-33.866 Y-20.513 Z2.0
G1 X-33.875 Y-20.145 Z0.0
G0 Z3.0
G0 X-33.866 Y-20.513
G0 Z1.4
G1 F300.0 Z0.0
G1 F800.0 X-33.8389 Y-20.8801 Z2.0
G1 X-33.866 Y-20.513 Z0.0
G0 Z3.0
G0 X-33.8389 Y-20.8801
G0 Z1.4
G1 F300.0 Z0.0
G1 F800.0 X-33.7938 Y-21.2455 Z2.0
G1 X-33.8389 Y-20.8801 Z0.0
G0 Z3.0
G0 X-33.7938 Y-21.2455
G0 Z1.4
G1 F300.0 Z0.0
G1 F800.0 X-33.7309 Y-21.6082 Z2.0
G1 X-33.7938 Y-21.2455 Z0.0
G0 Z3.0
G0 X-33.7309 Y-21.6082
G0 Z1.4
G1 F300.0 Z0.0
G1 F800.0 X-33.6502 Y-21.9674 Z2.0
G1 X-33.7309 Y-21.6082 Z0.0
G0 Z3.0
G0 X-33.6502 Y-21.9674
G0 Z1.4
G1 F300.0 Z0.0
G1 F800.0 X-33.5521 Y-22.3221 Z2.0
G1 X-33.6502 Y-21.9674 Z0.0
G0 Z3.0
G0 X-33.5521 Y-22.3221
G0 Z1.4
G1 F300.0 Z0.0
G1 F800.0 X-33.4366 Y-22.6717 Z2.0
G1 X-33.5521 Y-22.3221 Z0.0
G0 Z3.0
G0 X-33.4366 Y-22.6717
G0 Z1.4
G1 F300.0 Z0.0
G1 F800.0 X-33.3041 Y-23.0151 Z2.0
G1 X-33.4366 Y-22.6717 Z0.0
G0 Z3.0
G0 X-33.3041 Y-23.0151
G0 Z1.4
G1 F300.0 Z0.0
G1 F800.0 X-33.1549 Y-23.3517 Z2.0
G1 X-33.3041 Y-23.0151 Z0.0
G0 Z3.0
G0 X-33.1549 Y-23.3517
G0 Z1.4
G1 F300.0 Z0.0
G1 F800.0 X-32.9894 Y-23.6805 Z2.0
G1 X-33.1549 Y-23.3517 Z0.0
G0 Z3.0
G0 X-32.9894 Y-23.6805
G0 Z1.4
G1 F300.0 Z0.0
G1 F800.0 X-32.808 Y-24.0008 Z2.0
G1 X-32.9894 Y-23.6805 Z0.0
G0 Z3.0
G0 X-32.808 Y-24.0008
G0 Z1.4
G1 F300.0 Z0.0
G1 F800.0 X-32.611 Y-24.3118 Z2.0
G1 X-32.808 Y-24.0008 Z0.0
G0 Z3.0
G0 X-32.611 Y-24.3118
G0 Z1.4
G1 F300.0 Z0.0
G1 F800.0 X-32.3991 Y-24.6127 Z2.0
G1 X-32.611 Y-24.3118 Z0.0
G0 Z3.0
G0 X-32.3991 Y-24.6127
G0 Z1.4
G1 F300.0 Z0.0
G1 F800.0 X-32.1726 Y-24.903 Z2.0
G1 X-32.3991 Y-24.6127 Z0.0
G0 Z3.0
G0 X-32.1726 Y-24.903
G0 Z1.4
G1 F300.0 Z0.0
G1 F800.0 X-31.9321 Y-25.1817 Z2.0
G1 X-32.1726 Y-24.903 Z0.0
G0 Z3.0
G0 X-31.9321 Y-25.1817
G0 Z1.4
G1 F300.0 Z0.0
G1 F800.0 X-31.6783 Y-25.4483 Z2.0
G1 X-31.9321 Y-25.1817 Z0.0
G0 Z3.0
G0 X-31.6783 Y-25.4483
G0 Z1.4
G1 F300.0 Z0.0
G1 F800.0 X-31.4117 Y-25.7021 Z2.0
G1 X-31.6783 Y-25.4483 Z0.0
G0 Z3.0
G0 X-31.4117 Y-25.7021
G0 Z1.4
G1 F300.0 Z0.0
G1 F800.0 X-31.1329 Y-25.9426 Z2.0
G1 X-31.4117 Y-25.7021 Z0.0
G0 Z3.0
G0 X-31.1329 Y-25.9426
G0 Z1.4
G1 F300.0 Z0.0
G1 F800.0 X-30.8427 Y-26.1691 Z2.0
G1 X-31.1329 Y-25.9426 Z0.0
G0 Z3.0
G0 X-30.8427 Y-26.1691
G0 Z1.4
G1 F300.0 Z0.0
G1 F800.0 X-30.5418 Y-26.381 Z2.0
G1 X-30.8427 Y-26.1691 Z0.0
G0 Z3.0
G0 X-30.5418 Y-26.381
G0 Z1.4
G1 F300.0 Z0.0
G1 F800.0 X-30.2308 Y-26.578 Z2.0
G1 X-30.5418 Y-26.381 Z0.0
G0 Z3.0
G0 X-30.2308 Y-26.578
G0 Z1.4
G1 F300.0 Z0.0
G1 F800.0 X-29.9105 Y-26.7594 Z2.0
G1 X-30.2308 Y-26.578 Z0.0
G0 Z3.0
G0 X-29.9105 Y-26.7594
G0 Z1.4
G1 F300.0 Z0.0
G1 F800.0 X-29.5817 Y-26.9249 Z2.0
G1 X-29.9105 Y-26.7594 Z0.0
G0 Z3.0
G0 X-29.5817 Y-26.9249
G0 Z1.4
G1 F300.0 Z0.0
G1 F800.0 X-29.2451 Y-27.0741 Z2.0
G1 X-29.5817 Y-26.9249 Z0.0
G0 Z3.0
G0 X-29.2451 Y-27.0741
G0 Z1.4
G1 F300.0 Z0.0
G1 F800.0 X-28.9017 Y-27.2066 Z2.0
G1 X-29.2451 Y-27.0741 Z0.0
G0 Z3.0
G0 X-28.9017 Y-27.2066
G0 Z1.4
G1 F300.0 Z0.0
G1 F800.0 X-28.5521 Y-27.3221 Z2.0
G1 X-28.9017 Y-27.2066 Z0.0
G0 Z3.0
G0 X-28.5521 Y-27.3221
G0 Z1.4
G1 F300.0 Z0.0
G1 F800.0 X-28.1973 Y-27.4202 Z2.0
G1 X-28.5521 Y-27.3221 Z0.0
G0 Z3.0
G0 X-28.1973 Y-27.4202
G0 Z1.4
G1 F300.0 Z0.0
G1 F800.0 X-27.8382 Y-27.5009 Z2.0
G1 X-28.1973 Y-27.4202 Z0.0
G0 Z3.0
G0 X-27.8382 Y-27.5009
G0 Z1.4
G1 F300.0 Z0.0
G1 F800.0 X-27.4755 Y-27.5638 Z2.0
G1 X-27.8382 Y-27.5009 Z0.0
G0 Z3.0
G0 X-27.4755 Y-27.5638
G0 Z1.4
G1 F300.0 Z0.0
G1 F800.0 X-27.1101 Y-27.6089 Z2.0
G1 X-27.4755 Y-27.5638 Z0.0
G0 Z3.0
G0 X-27.1101 Y-27.6089
G0 Z1.4
G1 F300.0 Z0.0
G1 F800.0 X-26.743 Y-27.636 Z2.0
G1 X-27.1101 Y-27.6089 Z0.0
G0 Z3.0
G0 X-26.743 Y-27.636
G0 Z1.4
G1 F300.0 Z0.0
G1 F800.0 X-26.375 Y-27.645
G1 X-26.007 Y-27.636
G1 X-26.375 Y-27.645 Z2.0
G1 X-26.743 Y-27.636 Z0.0
G0 Z3.0
G0 X-26.007
G0 Z1.0
G1 F300.0 Z0.0
G1 F800.0 X-25.6399 Y-27.6089 Z2.0
G1 X-26.007 Y-27.636 Z0.0
G0 Z3.0
G0 X-25.6399 Y-27.6089
G0 Z1.4
G1 F300.0 Z0.0
G1 F800.0 X-25.2745 Y-27.5638 Z2.0
G1 X-25.6399 Y-27.6089 Z0.0
G0 Z3.0
G0 X-25.2745 Y-27.5638
G0 Z1.4
G1 F300.0 Z0.0
G1 F800.0 X-24.9118 Y-27.5009 Z2.0
G1 X-25.2745 Y-27.5638 Z0.0
G0 Z3.0
G0 X-24.9118 Y-27.5009
G0 Z1.4
G1 F300.0 Z0.0
G1 F800.0 X-24.5526 Y-27.4202 Z2.0
G1 X-24.9118 Y-27.5009 Z0.0
G0 Z3.0
G0 X-24.5526 Y-27.4202
G0 Z1.4
G1 F300.0 Z0.0
G1 F800.0 X-24.1979 Y-27.3221 Z2.0
G1 X-24.5526 Y-27.4202 Z0.0
G0 Z3.0
G0 X-24.1979 Y-27.3221
G0 Z1.4
G1 F300.0 Z0.0
G1 F800.0 X-23.8483 Y-27.2066 Z2.0
G1 X-24.1979 Y-27.3221 Z0.0
G0 Z3.0
G0 X-23.8483 Y-27.2066
G0 Z1.4
G1 F300.0 Z0.0
G1 F800.0 X-23.5049 Y-27.0741 Z2.0
G1 X-23.8483 Y-27.2066 Z0.0
G0 Z3.0
G0 X-23.5049 Y-27.0741
G0 Z1.4
G1 F300.0 Z0.0
G1 F800.0 X-23.1683 Y-26.9249 Z2.0
G1 X-23.5049 Y-27.0741 Z0.0
G0 Z3.0
G0 X-23.1683 Y-26.9249
G0 Z1.4
G1 F300.0 Z0.0
G1 F800.0 X-22.8395 Y-26.7594 Z2.0
G1 X-23.1683 Y-26.9249 Z0.0
G0 Z3.0
G0 X-22.8395 Y-26.7594
G0 Z1.4
G1 F300.0 Z0.0
G1 F800.0 X-22.5192 Y-26.578 Z2.0
G1 X-22.8395 Y-26.7594 Z0.0
G0 Z3.0
G0 X-22.5192 Y-26.578
G0 Z1.4
G1 F300.0 Z0.0
G1 F800.0 X-22.2082 Y-26.381 Z2.0
G1 X-22.5192 Y-26.578 Z0.0
G0 Z3.0
G0 X-22.2082 Y-26.381
G0 Z1.4
G1 F300.0 Z0.0
G1 F800.0 X-21.9073 Y-26.1691 Z2.0
G1 X-22.2082 Y-26.381 Z0.0
G0 Z3.0
G0 X-21.9073 Y-26.1691
G0 Z1.4
G1 F300.0 Z0.0
G1 F800.0 X-21.6171 Y-25.9426 Z2.0
G1 X-21.9073 Y-26.1691 Z0.0
G0 Z3.0
G0 X-21.6171 Y-25.9426
G0 Z1.4
G1 F300.0 Z0.0
G1 F800.0 X-21.3383 Y-25.7021 Z2.0
G1 X-21.6171 Y-25.9426 Z0.0
G0 Z3.0
G0 X-21.3383 Y-25.7021
G0 Z1.4
G1 F300.0 Z0.0
G1 F800.0 X-21.0717 Y-25.4483 Z2.0
G1 X-21.3383 Y-25.7021 Z0.0
G0 Z3.0
G0 X-21.0717 Y-25.4483
G0 Z1.4
G1 F300.0 Z0.0
G1 F800.0 X-20.8179 Y-25.1817 Z2.0
G1 X-21.0717 Y-25.4483 Z0.0
G0 Z3.0
G0 X-20.8179 Y-25.1817
G0 Z1.4
G1 F300.0 Z0.0
G1 F800.0 X-20.7862 Y-25.145 Z2.0
G1 X-20.8179 Y-25.1817 Z0.0
G0 Z3.0
G0 X-20.7862 Y-25.145
G0 Z1.4
G1 F300.0 Z0.0
G1 F800.0 X-17.5464 Z2.0
G1 X-20.7862 Z0.0
G0 Z3.0
G0 X-17.5464
G0 Z1.4
G1 F300.0 Z0.0
G1 F800.0 X-17.5421 Y-25.3214 Z2.0
G1 X-17.5464 Y-25.145 Z0.0
G0 Z3.0
G0 X-17.5421 Y-25.3214
G0 Z1.4
G1 F300.0 Z0.0
G1 F800.0 X-17.5185 Y-25.642 Z2.0
G1 X-17.5421 Y-25.3214 Z0.0
G0 Z3.0
G0 X-17.5185 Y-25.642
G0 Z1.4
G1 F300.0 Z0.0
G1 F800.0 X-17.4791 Y-25.9611 Z2.0
G1 X-17.5185 Y-25.642 Z0.0
G0 Z3.0
G0 X-17.4791 Y-25.9611
G0 Z1.4
G1 F300.0 Z0.0
G1 F800.0 X-17.4241 Y-26.2778 Z2.0
G1 X-17.4791 Y-25.9611 Z0.0
G0 Z3.0
G0 X-17.4241 Y-26.2778
G0 Z1.4
G1 F300.0 Z0.0
G1 F800.0 X-17.3537 Y-26.5915 Z2.0
G1 X-17.4241 Y-26.2778 Z0.0
G0 Z3.0
G0 X-17.3537 Y-26.5915
G0 Z1.4
G1 F300.0 Z0.0
G1 F800.0 X-17.268 Y-26.9014 Z2.0
G1 X-17.3537 Y-26.5915 Z0.0
G0 Z3.0
G0 X-17.268 Y-26.9014
G0 Z1.4
G1 F300.0 Z0.0
G1 F800.0 X-17.1671 Y-27.2066 Z2.0
G1 X-17.268 Y-26.9014 Z0.0
G0 Z3.0
G0 X-17.1671 Y-27.2066
G0 Z1.4
G1 F300.0 Z0.0
G1 F800.0 X-17.0514 Y-27.5066 Z2.0
G1 X-17.1671 Y-27.2066 Z0.0
G0 Z3.0
G0 X-17.0514 Y-27.5066
G0 Z1.4
G1 F300.0 Z0.0
G1 F800.0 X-16.9211 Y-27.8005 Z2.0
G1 X-17.0514 Y-27.5066 Z0.0
G0 Z3.0
G0 X-16.9211 Y-27.8005
G0 Z1.4
G1 F300.0 Z0.0
G1 F800.0 X-16.7766 Y-28.0876 Z2.0
G1 X-16.9211 Y-27.8005 Z0.0
G0 Z3.0
G0 X-16.7766 Y-28.0876
G0 Z1.4
G1 F300.0 Z0.0
G1 F800.0 X-16.6181 Y-28.3674 Z2.0
G1 X-16.7766 Y-28.0876 Z0.0
G0 Z3.0
G0 X-16.6181 Y-28.3674
G0 Z1.4
G1 F300.0 Z0.0
G1 F800.0 X-16.4461 Y-28.639 Z2.0
G1 X-16.6181 Y-28.3674 Z0.0
G0 Z3.0
G0 X-16.4461 Y-28.639
G0 Z1.4
G1 F300.0 Z0.0
G1 F800.0 X-16.261 Y-28.9018 Z2.0
G1 X-16.4461 Y-28.639 Z0.0
G0 Z3.0
G0 X-16.261 Y-28.9018
G0 Z1.4
G1 F300.0 Z0.0
G1 F800.0 X-16.0632 Y-29.1553 Z2.0
G1 X-16.261 Y-28.9018 Z0.0
G0 Z3.0
G0 X-16.0632 Y-29.1553
G0 Z1.4
G1 F300.0 Z0.0
G1 F800.0 X-15.8532 Y-29.3987 Z2.0
G1 X-16.0632 Y-29.1553 Z0.0
G0 Z3.0
G0 X-15.8532 Y-29.3987
G0 Z1.4
G1 F300.0 Z0.0
G1 F800.0 X-15.6315 Y-29.6315 Z2.0
G1 X-15.8532 Y-29.3987 Z0.0
G0 Z3.0
G0 X-15.6315 Y-29.6315
G0 Z1.4
G1 F300.0 Z0.0
G1 F800.0 X-15.3987 Y-29.8532 Z2.0
G1 X-15.6315 Y-29.6315 Z0.0
G0 Z3.0
G0 X-15.3987 Y-29.8532
G0 Z1.4
G1 F300.0 Z0.0
G1 F800.0 X-15.1553 Y-30.0632 Z2.0
G1 X-15.3987 Y-29.8532 Z0.0
G0 Z3.0
G0 X-15.1553 Y-30.0632
G0 Z1.4
G1 F300.0 Z0.0
G1 F800.0 X-14.9018 Y-30.261 Z2.0
G1 X-15.1553 Y-30.0632 Z0.0
G0 Z3.0
G0 X-14.9018 Y-30.261
G0 Z1.4
G1 F300.0 Z0.0
G1 F800.0 X-14.639 Y-30.4461 Z2.0
G1 X-14.9018 Y-30.261 Z0.0
G0 Z3.0
G0 X-14.639 Y-30.4461
G0 Z1.4
G1 F300.0 Z0.0
G1 F800.0 X-14.3674 Y-30.6181 Z2.0
G1 X-14.639 Y-30.4461 Z0.0
G0 Z3.0
G0 X-14.3674 Y-30.6181
G0 Z1.4
G1 F300.0 Z0.0
G1 F800.0 X-14.0876 Y-30.7766 Z2.0
G1 X-14.3674 Y-30.6181 Z0.0
G0 Z3.0
G0 X-14.0876 Y-30.7766
G0 Z1.4
G1 F300.0 Z0.0
G1 F800.0 X-13.8005 Y-30.9211 Z2.0
G1 X-14.0876 Y-30.7766 Z0.0
G0 Z3.0
G0 X-13.8005 Y-30.9211
G0 Z1.4
G1 F300.0 Z0.0
G1 F800.0 X-13.5066 Y-31.0514 Z2.0
G1 X-13.8005 Y-30.9211 Z0.0
G0 Z3.0
G0 X-13.5066 Y-31.0514
G0 Z1.4
G1 F300.0 Z0.0
G1 F800.0 X-13.2066 Y-31.1671 Z2.0
G1 X-13.5066 Y-31.0514 Z0.0
G0 Z3.0
G0 X-13.2066 Y-31.1671
G0 Z1.4
G1 F300.0 Z0.0
G1 F800.0 X-12.9014 Y-31.268 Z2.0
G1 X-13.2066 Y-31.1671 Z0.0
G0 Z3.0
G0 X-12.9014 Y-31.268
G0 Z1.4
G1 F300.0 Z0.0
G1 F800.0 X-12.5915 Y-31.3537 Z2.0
G1 X-12.9014 Y-31.268 Z0.0
G0 Z3.0
G0 X-12.5915 Y-31.3537
G0 Z1.4
G1 F300.0 Z0.0
G1 F800.0 X-12.2778 Y-31.4241 Z2.0
G1 X-12.5915 Y-31.3537 Z0.0
G0 Z3.0
G0 X-12.2778 Y-31.4241
G0 Z1.4
G1 F300.0 Z0.0
G1 F800.0 X-11.9611 Y-31.4791 Z2.0
G1 X-12.2778 Y-31.4241 Z0.0
G0 Z3.0
G0 X-11.9611 Y-31.4791
G0 Z1.4
G1 F300.0 Z0.0
G1 F800.0 X-11.642 Y-31.5185 Z2.0
G1 X-11.9611 Y-31.4791 Z0.0
G0 Z3.0
G0 X-11.642 Y-31.5185
G0 Z1.4
G1 F300.0 Z0.0
G1 F800.0 X-11.3214 Y-31.5421 Z2.0
G1 X-11.642 Y-31.5185 Z0.0
G0 Z3.0
G0 X-11.3214 Y-31.5421
G0 Z1.4
G1 F300.0 Z0.0
G1 F800.0 X-11.0 Y-31.55
G1 X-10.6786 Y-31.5421
G1 X-11.0 Y-31.55 Z2.0
G1 X-11.3214 Y-31.5421 Z0.0
G0 Z3.0
G0 X-10.6786
G0 Z1.0
G1 F300.0 Z0.0
G1 F800.0 X-10.358 Y-31.5185 Z2.0
G1 X-10.6786 Y-31.5421 Z0.0
G0 Z3.0
G0 X-10.358 Y-31.5185
G0 Z1.4
G1 F300.0 Z0.0
G1 F800.0 X-10.0389 Y-31.4791 Z2.0
G1 X-10.358 Y-31.5185 Z0.0
G0 Z3.0
G0 X-10.0389 Y-31.4791
G0 Z1.4
G1 F300.0 Z0.0
G1 F800.0 X-9.7222 Y-31.4241 Z2.0
G1 X-10.0389 Y-31.4791 Z0.0
G0 Z3.0
G0 X-9.7222 Y-31.4241
G0 Z1.4
G1 F300.0 Z0.0
G1 F800.0 X-9.4085 Y-31.3537 Z2.0
G1 X-9.7222 Y-31.4241 Z0.0
G0 Z3.0
G0 X-9.4085 Y-31.3537
G0 Z1.4
G1 F300.0 Z0.0
G1 F800.0 X-9.0986 Y-31.268 Z2.0
G1 X-9.4085 Y-31.3537 Z0.0
G0 Z3.0
G0 X-9.0986 Y-31.268
G0 Z1.4
G1 F300.0 Z0.0
G1 F800.0 X-8.7934 Y-31.1671 Z2.0
G1 X-9.0986 Y-31.268 Z0.0
G0 Z3.0
G0 X-8.7934 Y-31.1671
G0 Z1.4
G1 F300.0 Z0.0
G1 F800.0 X-8.4934 Y-31.0514 Z2.0
G1 X-8.7934 Y-31.1671 Z0.0
G0 Z3.0
G0 X-8.4934 Y-31.0514
G0 Z1.4
G1 F300.0 Z0.0
G1 F800.0 X-8.1995 Y-30.9211 Z2.0
G1 X-8.4934 Y-31.0514 Z0.0
G0 Z3.0
G0 X-8.1995 Y-30.9211
G0 Z1.4
G1 F300.0 Z0.0
G1 F800.0 X-7.9124 Y-30.7766 Z2.0
G1 X-8.1995 Y-30.9211 Z0.0
G0 Z3.0
G0 X-7.9124 Y-30.7766
G0 Z1.4
G1 F300.0 Z0.0
G1 F800.0 X-7.6326 Y-30.6181 Z2.0
G1 X-7.9124 Y-30.7766 Z0.0
G0 Z3.0
G0 X-7.6326 Y-30.6181
G0 Z1.4
G1 F300.0 Z0.0
G1 F800.0 X-7.361 Y-30.4461 Z2.0
G1 X-7.6326 Y-30.6181 Z0.0
G0 Z3.0
G0 X-7.361 Y-30.4461
G0 Z1.4
G1 F300.0 Z0.0
G1 F800.0 X-7.0982 Y-30.261 Z2.0
G1 X-7.361 Y-30.4461 Z0.0
G0 Z3.0
G0 X-7.0982 Y-30.261
G0 Z1.4
G1 F300.0 Z0.0
G1 F800.0 X-6.8447 Y-30.0632 Z2.0
G1 X-7.0982 Y-30.261 Z0.0
G0 Z3.0
G0 X-6.8447 Y-30.0632
G0 Z1.4
G1 F300.0 Z0.0
G1 F800.0 X-6.6013 Y-29.8532 Z2.0
G1 X-6.8447 Y-30.0632 Z0.0
G0 Z3.0
G0 X-6.6013 Y-29.8532
G0 Z1.4
G1 F300.0 Z0.0
G1 F800.0 X-6.3685 Y-29.6315 Z2.0
G1 X-6.6013 Y-29.8532 Z0.0
G0 Z3.0
G0 X-6.3685 Y-29.6315
G0 Z1.4
G1 F300.0 Z0.0
G1 F800.0 X-6.1468 Y-29.3987 Z2.0
G1 X-6.3685 Y-29.6315 Z0.0
G0 Z3.0
G0 X-6.1468 Y-29.3987
G0 Z1.4
G1 F300.0 Z0.0
G1 F800.0 X-5.9368 Y-29.1553 Z2.0
G1 X-6.1468 Y-29.3987 Z0.0
G0 Z3.0
G0 X-5.9368 Y-29.1553
G0 Z1.4
G1 F300.0 Z0.0
G1 F800.0 X-5.739 Y-28.9018 Z2.0
G1 X-5.9368 Y-29.1553 Z0.0
G0 Z3.0
G0 X-5.739 Y-28.9018
G0 Z1.4
G1 F300.0 Z0.0
G1 F800.0 X-5.5539 Y-28.639 Z2.0
G1 X-5.739 Y-28.9018 Z0.0
G0 Z3.0
G0 X-5.5539 Y-28.639
G0 Z1.4
G1 F300.0 Z0.0
G1 F800.0 X-5.3819 Y-28.3674 Z2.0
G1 X-5.5539 Y-28.639 Z0.0
G0 Z3.0
G0 X-5.3819 Y-28.3674
G0 Z1.4
G1 F300.0 Z0.0
G1 F800.0 X-5.2234 Y-28.0876 Z2.0
G1 X-5.3819 Y-28.3674 Z0.0
G0 Z3.0
G0 X-5.2234 Y-28.0876
G0 Z1.4
G1 F300.0 Z0.0
G1 F800.0 X-5.0789 Y-27.8005 Z2.0
G1 X-5.2234 Y-28.0876 Z0.0
G0 Z3.0
G0 X-5.0789 Y-27.8005
G0 Z1.4
G1 F300.0 Z0.0
G1 F800.0 X-4.9486 Y-27.5066 Z2.0
G1 X-5.0789 Y-27.8005 Z0.0
G0 Z3.0
G0 X-4.9486 Y-27.5066
G0 Z1.4
G1 F300.0 Z0.0
G1 F800.0 X-4.8329 Y-27.2066 Z2.0
G1 X-4.9486 Y-27.5066 Z0.0
G0 Z3.0
G0 X-4.8329 Y-27.2066
G0 Z1.4
G1 F300.0 Z0.0
G1 F800.0 X-4.732 Y-26.9014 Z2.0
G1 X-4.8329 Y-27.2066 Z0.0
G0 Z3.0
G0 X-4.732 Y-26.9014
G0 Z1.4
G1 F300.0 Z0.0
G1 F800.0 X-4.6463 Y-26.5915 Z2.0
G1 X-4.732 Y-26.9014 Z0.0
G0 Z3.0
G0 X-4.6463 Y-26.5915
G0 Z1.4
G1 F300.0 Z0.0
G1 F800.0 X-4.5759 Y-26.2778 Z2.0
G1 X-4.6463 Y-26.5915 Z0.0
G0 Z3.0
G0 X-4.5759 Y-26.2778
G0 Z1.4
G1 F300.0 Z0.0
G1 F800.0 X-4.5209 Y-25.9611 Z2.0
G1 X-4.5759 Y-26.2778 Z0.0
G0 Z3.0
G0 X-4.5209 Y-25.9611
G0 Z1.4
G1 F300.0 Z0.0
G1 F800.0 X-4.4815 Y-25.642 Z2.0
G1 X-4.5209 Y-25.9611 Z0.0
G0 Z3.0
G0 X-4.4815 Y-25.642
G0 Z1.4
G1 F300.0 Z0.0
G1 F800.0 X-4.4579 Y-25.3214 Z2.0
G1 X-4.4815 Y-25.642 Z0.0
G0 Z3.0
G0 X-4.4579 Y-25.3214
G0 Z1.4
G1 F300.0 Z0.0
G1 F800.0 X-4.4536 Y-25.145 Z2.0
G1 X-4.4579 Y-25.3214 Z0.0
G0 Z3.0
G0 X-4.4536 Y-25.145
G0 Z1.4
G1 F300.0 Z0.0
G1 F800.0 X20.7862 Z2.0
G1 X-4.4536 Z0.0
G0 Z3.0
G0 X-16.0 Y-15.145
G1 F300.0 Z2.0
G1 F800.0 Y-5.0 Z0.0
G1 Y-15.145 Z2.0
G0 Z1.4
G1 F300.0 Z0.0
G1 F800.0 X-20.7862 Z2.0
G1 X-16.0 Z0.0
G0 Z3.0
G0 X-20.7862
G0 Z1.4
G1 F300.0 Z0.0
G1 F800.0 X-20.8179 Y-15.1083 Z2.0
G1 X-20.7862 Y-15.145 Z0.0
G0 Z3.0
G0 X-20.8179 Y-15.1083
G0 Z1.4
G1 F300.0 Z0.0
G1 F800.0 X-21.0717 Y-14.8417 Z2.0
G1 X-20.8179 Y-15.1083 Z0.0
G0 Z3.0
G0 X-21.0717 Y-14.8417
G0 Z1.4
G1 F300.0 Z0.0
G1 F800.0 X-21.3383 Y-14.5879 Z2.0
G1 X-21.0717 Y-14.8417 Z0.0
G0 Z3.0
G0 X-21.3383 Y-14.5879
G0 Z1.4
G1 F300.0 Z0.0
G1 F800.0 X-21.6171 Y-14.3474 Z2.0
G1 X-21.3383 Y-14.5879 Z0.0
G0 Z3.0
G0 X-21.6171 Y-14.3474
G0 Z1.4
G1 F300.0 Z0.0
G1 F800.0 X-21.9073 Y-14.1209 Z2.0
G1 X-21.6171 Y-14.3474 Z0.0
G0 Z3.0
G0 X-21.9073 Y-14.1209
G0 Z1.4
G1 F300.0 Z0.0
G1 F800.0 X-22.2082 Y-13.909 Z2.0
G1 X-21.9073 Y-14.1209 Z0.0
G0 Z3.0
G0 X-22.2082 Y-13.909
G0 Z1.4
G1 F300.0 Z0.0
G1 F800.0 X-22.5192 Y-13.712 Z2.0
G1 X-22.2082 Y-13.909 Z0.0
G0 Z3.0
G0 X-22.5192 Y-13.712
G0 Z1.4
G1 F300.0 Z0.0
G1 F800.0 X-22.8395 Y-13.5306 Z2.0
G1 X-22.5192 Y-13.712 Z0.0
G0 Z3.0
G0 X-22.8395 Y-13.5306
G0 Z1.4
G1 F300.0 Z0.0
G1 F800.0 X-23.1683 Y-13.3651 Z2.0
G1 X-22.8395 Y-13.5306 Z0.0
G0 Z3.0
G0 X-23.1683 Y-13.3651
G0 Z1.4
G1 F300.0 Z0.0
G1 F800.0 X-23.5049 Y-13.2159 Z2.0
G1 X-23.1683 Y-13.3651 Z0.0
G0 Z3.0
G0 X-23.5049 Y-13.2159
G0 Z1.4
G1 F300.0 Z0.0
G1 F800.0 X-23.8483 Y-13.0834 Z2.0
G1 X-23.5049 Y-13.2159 Z0.0
G0 Z3.0
G0 X-23.8483 Y-13.0834
G0 Z1.4
G1 F300.0 Z0.0
G1 F800.0 X-24.1979 Y-12.9679 Z2.0
G1 X-23.8483 Y-13.0834 Z0.0
G0 Z3.0
G0 X-24.1979 Y-12.9679
G0 Z1.4
G1 F300.0 Z0.0
G1 F800.0 X-24.5526 Y-12.8698 Z2.0
G1 X-24.1979 Y-12.9679 Z0.0
G0 Z3.0
G0 X-24.5526 Y-12.8698
G0 Z1.4
G1 F300.0 Z0.0
G1 F800.0 X-24.9118 Y-12.7891 Z2.0
G1 X-24.5526 Y-12.8698 Z0.0
G0 Z3.0
G0 X-24.9118 Y-12.7891
G0 Z1.4
G1 F300.0 Z0.0
G1 F800.0 X-25.2745 Y-12.7262 Z2.0
G1 X-24.9118 Y-12.7891 Z0.0
G0 Z3.0
G0 X-25.2745 Y-12.7262
G0 Z1.4
G1 F300.0 Z0.0
G1 F800.0 X-25.6399 Y-12.6811 Z2.0
G1 X-25.2745 Y-12.7262 Z0.0
G0 Z3.0
G0 X-25.6399 Y-12.6811
G0 Z1.4
G1 F300.0 Z0.0
G1 F800.0 X-26.007 Y-12.654 Z2.0
G1 X-25.6399 Y-12.6811 Z0.0
G0 Z3.0
G0 X-26.007 Y-12.654
G0 Z1.4
G1 F300.0 Z0.0
G1 F800.0 X-26.375 Y-12.645
G1 X-26.743 Y-12.654
G1 X-26.375 Y-12.645 Z2.0
G1 X-26.007 Y-12.654 Z0.0
G0 Z3.0
G0 X-26.743
G0 Z1.0
G1 F300.0 Z0.0
G1 F800.0 X-27.1101 Y-12.6811 Z2.0
G1 X-26.743 Y-12.654 Z0.0
G0 Z3.0
G0 X-27.1101 Y-12.6811
G0 Z1.4
G1 F300.0 Z0.0
G1 F800.0 X-27.4755 Y-12.7262 Z2.0
G1 X-27.1101 Y-12.6811 Z0.0
G0 Z3.0
G0 X-27.4755 Y-12.7262
G0 Z1.4
G1 F300.0 Z0.0
G1 F800.0 X-27.8382 Y-12.7891 Z2.0
G1 X-27.4755 Y-12.7262 Z0.0
G0 Z3.0
G0 X-27.8382 Y-12.7891
G0 Z1.4
G1 F300.0 Z0.0
G1 F800.0 X-28.1973 Y-12.8698 Z2.0
G1 X-27.8382 Y-12.7891 Z0.0
G0 Z3.0
G0 X-28.1973 Y-12.8698
G0 Z1.4
G1 F300.0 Z0.0
G1 F800.0 X-28.5521 Y-12.9679 Z2.0
G1 X-28.1973 Y-12.8698 Z0.0
G0 Z3.0
G0 X-28.5521 Y-12.9679
G0 Z1.4
G1 F300.0 Z0.0
G1 F800.0 X-28.9017 Y-13.0834 Z2.0
G1 X-28.5521 Y-12.9679 Z0.0
G0 Z3.0
G0 X-28.9017 Y-13.0834
G0 Z1.4
G1 F300.0 Z0.0
G1 F800.0 X-29.2451 Y-13.2159 Z2.0
G1 X-28.9017 Y-13.0834 Z0.0
G0 Z3.0
G0 X-29.2451 Y-13.2159
G0 Z1.4
G1 F300.0 Z0.0
G1 F800.0 X-29.5817 Y-13.3651 Z2.0
G1 X-29.2451 Y-13.2159 Z0.0
G0 Z3.0
G0 X-29.5817 Y-13.3651
G0 Z1.4
G1 F300.0 Z0.0
G1 F800.0 X-29.9105 Y-13.5306 Z2.0
G1 X-29.5817 Y-13.3651 Z0.0
G0 Z3.0
G0 X-29.9105 Y-13.5306
G0 Z1.4
G1 F300.0 Z0.0
G1 F800.0 X-30.2308 Y-13.712 Z2.0
G1 X-29.9105 Y-13.5306 Z0.0
G0 Z3.0
G0 X-30.2308 Y-13.712
G0 Z1.4
G1 F300.0 Z0.0
G1 F800.0 X-30.5418 Y-13.909 Z2.0
G1 X-30.2308 Y-13.712 Z0.0
G0 Z3.0
G0 X-30.5418 Y-13.909
G0 Z1.4
G1 F300.0 Z0.0
G1 F800.0 X-30.8427 Y-14.1209 Z2.0
G1 X-30.5418 Y-13.909 Z0.0
G0 Z3.0
G0 X-30.8427 Y-14.1209
G0 Z1.4
G1 F300.0 Z0.0
G1 F800.0 X-31.1329 Y-14.3474 Z2.0
G1 X-30.8427 Y-14.1209 Z0.0
G0 Z3.0
G0 X-31.1329 Y-14.3474
G0 Z1.4
G1 F300.0 Z0.0
G1 F800.0 X-31.4117 Y-14.5879 Z2.0
G1 X-31.1329 Y-14.3474 Z0.0
G0 Z3.0
G0 X-31.4117 Y-14.5879
G0 Z1.4
G1 F300.0 Z0.0
G1 F800.0 X-31.6783 Y-14.8417 Z2.0
G1 X-31.4117 Y-14.5879 Z0.0
G0 Z3.0
G0 X-31.6783 Y-14.8417
G0 Z1.4
G1 F300.0 Z0.0
G1 F800.0 X-31.9321 Y-15.1083 Z2.0
G1 X-31.6783 Y-14.8417 Z0.0
G0 Z3.0
G0 X-31.9321 Y-15.1083
G0 Z1.4
G1 F300.0 Z0.0
G1 F800.0 X-32.1726 Y-15.387 Z2.0
G1 X-31.9321 Y-15.1083 Z0.0
G0 Z3.0
G0 X-32.1726 Y-15.387
G0 Z1.4
G1 F300.0 Z0.0
G1 F800.0 X-32.3991 Y-15.6773 Z2.0
G1 X-32.1726 Y-15.387 Z0.0
G0 Z3.0
G0 X-32.3991 Y-15.6773
G0 Z1.4
G1 F300.0 Z0.0
G1 F800.0 X-32.611 Y-15.9782 Z2.0
G1 X-32.3991 Y-15.6773 Z0.0
G0 Z3.0
G0 X-16.0 Y-5.0
G1 F300.0 Z2.0
G1 F800.0 X-35.375 Z0.0
G1 X-16.0 Z2.0
G0 Z3.0
G0 Y5.0
G1 F300.0 Z2.0
G1 F800.0 Y5.7714 Z0.0
G1 Y5.0 Z2.0
G0 Z1.4
G1 F300.0 Z0.0
G1 F800.0 X-35.375 Z2.0
G1 X-16.0 Z0.0
G0 Z3.0
G0 Y5.7714
G1 F300.0 Z2.0
G1 F800.0 X-16.0632 Y5.8447 Z0.0
G1 X-16.0 Y5.7714 Z2.0
G0 Z3.0
G0 X-16.0632 Y5.8447
G1 F300.0 Z2.0
G1 F800.0 X-16.261 Y6.0982 Z0.0
G1 X-16.0632 Y5.8447 Z2.0
G0 Z3.0
G0 X-16.261 Y6.0982
G1 F300.0 Z2.0
G1 F800.0 X-16.4461 Y6.361 Z0.0
G1 X-16.261 Y6.0982 Z2.0
G0 Z3.0
G0 X-16.4461 Y6.361
G1 F300.0 Z2.0
G1 F800.0 X-16.6181 Y6.6326 Z0.0
G1 X-16.4461 Y6.361 Z2.0
G0 Z3.0
G0 X-16.6181 Y6.6326
G1 F300.0 Z2.0
G1 F800.0 X-16.7766 Y6.9124 Z0.0
G1 X-16.6181 Y6.6326 Z2.0
G0 Z3.0
G0 X-16.7766 Y6.9124
G1 F300.0 Z2.0
G1 F800.0 X-16.9211 Y7.1995 Z0.0
G1 X-16.7766 Y6.9124 Z2.0
G0 Z3.0
G0 X-16.9211 Y7.1995
G1 F300.0 Z2.0
G1 F800.0 X-17.0514 Y7.4934 Z0.0
G1 X-16.9211 Y7.1995 Z2.0
G0 Z3.0
G0 X-17.0514 Y7.4934
G1 F300.0 Z2.0
G1 F800.0 X-17.1671 Y7.7934 Z0.0
G1 X-17.0514 Y7.4934 Z2.0
G0 Z3.0
G0 X-17.1671 Y7.7934
G1 F300.0 Z2.0
G1 F800.0 X-17.268 Y8.0986 Z0.0
G1 X-17.1671 Y7.7934 Z2.0
G0 Z3.0
G0 X-17.268 Y8.0986
G1 F300.0 Z2.0
G1 F800.0 X-17.3537 Y8.4085 Z0.0
G1 X-17.268 Y8.0986 Z2.0
G0 Z3.0
G0 X-17.3537 Y8.4085
G1 F300.0 Z2.0
G1 F800.0 X-17.4241 Y8.7222 Z0.0
G1 X-17.3537 Y8.4085 Z2.0
G0 Z3.0
G0 X-17.4241 Y8.7222
G1 F300.0 Z2.0
G1 F800.0 X-17.4791 Y9.0389 Z0.0
G1 X-17.4241 Y8.7222 Z2.0
G0 Z3.0
G0 X-17.4791 Y9.0389
G1 F300.0 Z2.0
G1 F800.0 X-17.5185 Y9.358 Z0.0
G1 X-17.4791 Y9.0389 Z2.0
G0 Z3.0
G0 X-17.5185 Y9.358
G1 F300.0 Z2.0
G1 F800.0 X-17.5421 Y9.6786 Z0.0
G1 X-17.5185 Y9.358 Z2.0
G0 Z3.0
G0 X-17.5421 Y9.6786
G1 F300.0 Z2.0
G1 F800.0 X-17.55 Y10.0 Z0.0
G1 X-17.5421 Y9.6786 Z2.0
G0 Z3.0
G0 X-17.55 Y10.0
G1 F300.0 Z2.0
G1 F800.0 X-17.5421 Y10.3214 Z0.0
G1 X-17.55 Y10.0 Z2.0
G0 Z3.0
G0 X-17.5421 Y10.3214
G1 F300.0 Z2.0
G1 F800.0 X-17.5185 Y10.642 Z0.0
G1 X-17.5421 Y10.3214 Z2.0
G0 Z3.0
G0 X-17.5185 Y10.642
G1 F300.0 Z2.0
G1 F800.0 X-17.4791 Y10.9611 Z0.0
G1 X-17.5185 Y10.642 Z2.0
G0 Z3.0
G0 X-17.4791 Y10.9611
G1 F300.0 Z2.0
G1 F800.0 X-17.4241 Y11.2778 Z0.0
G1 X-17.4791 Y10.9611 Z2.0
G0 Z3.0
G0 X-17.4241 Y11.2778
G1 F300.0 Z2.0
G1 F800.0 X-17.3537 Y11.5915 Z0.0
G1 X-17.4241 Y11.2778 Z2.0
G0 Z3.0
G0 X-17.3537 Y11.5915
G1 F300.0 Z2.0
G1 F800.0 X-17.268 Y11.9014 Z0.0
G1 X-17.3537 Y11.5915 Z2.0
G0 Z3.0
G0 X-17.268 Y11.9014
G1 F300.0 Z2.0
G1 F800.0 X-17.1671 Y12.2066 Z0.0
G1 X-17.268 Y11.9014 Z2.0
G0 Z3.0
G0 X-17.1671 Y12.2066
G1 F300.0 Z2.0
G1 F800.0 X-17.0514 Y12.5066 Z0.0
G1 X-17.1671 Y12.2066 Z2.0
G0 Z3.0
G0 X-17.0514 Y12.5066
G1 F300.0 Z2.0
G1 F800.0 X-16.9211 Y12.8005 Z0.0
G1 X-17.0514 Y12.5066 Z2.0
G0 Z3.0
G0 X-16.9211 Y12.8005
G1 F300.0 Z2.0
G1 F800.0 X-16.7766 Y13.0876 Z0.0
G1 X-16.9211 Y12.8005 Z2.0
G0 Z3.0
G0 X-16.7766 Y13.0876
G1 F300.0 Z2.0
G1 F800.0 X-16.6181 Y13.3674 Z0.0
G1 X-16.7766 Y13.0876 Z2.0
G0 Z3.0
G0 X-16.6181 Y13.3674
G1 F300.0 Z2.0
G1 F800.0 X-16.4461 Y13.639 Z0.0
G1 X-16.6181 Y13.3674 Z2.0
G0 Z3.0
G0 X-16.4461 Y13.639
G1 F300.0 Z2.0
G1 F800.0 X-16.261 Y13.9018 Z0.0
G1 X-16.4461 Y13.639 Z2.0
G0 Z3.0
G0 X-16.261 Y13.9018
G1 F300.0 Z2.0
G1 F800.0 X-16.0632 Y14.1553 Z0.0
G1 X-16.261 Y13.9018 Z2.0
G0 Z3.0
G0 X-16.0632 Y14.1553
G1 F300.0 Z2.0
G1 F800.0 X-16.0 Y14.2286 Z0.0
G1 X-16.0632 Y14.1553 Z2.0
G0 Z3.0
G0 X-16.0 Y14.2286
G1 F300.0 Z2.0
G1 F800.0 Y20.7714 Z0.0
G1 Y14.2286 Z2.0
G0 Z3.0
G0 Y20.7714
G1 F300.0 Z2.0
G1 F800.0 X-16.0632 Y20.8447 Z0.0
G1 X-16.0 Y20.7714 Z2.0
G0 Z3.0
G0 X-16.0632 Y20.8447
G1 F300.0 Z2.0
G1 F800.0 X-16.261 Y21.0982 Z0.0
G1 X-16.0632 Y20.8447 Z2.0
G0 Z3.0
G0 X-16.261 Y21.0982
G1 F300.0 Z2.0
G1 F800.0 X-16.4461 Y21.361 Z0.0
G1 X-16.261 Y21.0982 Z2.0
G0 Z3.0
G0 X-16.4461 Y21.361
G1 F300.0 Z2.0
G1 F800.0 X-16.6181 Y21.6326 Z0.0
G1 X-16.4461 Y21.361 Z2.0
G0 Z3.0
G0 X-16.6181 Y21.6326
G1 F300.0 Z2.0
G1 F800.0 X-16.7766 Y21.9123 Z0.0
G1 X-16.6181 Y21.6326 Z2.0
G0 Z3.0
G0 X-16.7766 Y21.9123
G1 F300.0 Z2.0
G1 F800.0 X-16.9211 Y22.1995 Z0.0
G1 X-16.7766 Y21.9123 Z2.0
G0 Z3.0
G0 X-16.9211 Y22.1995
G1 F300.0 Z2.0
G1 F800.0 X-17.0514 Y22.4934 Z0.0
G1 X-16.9211 Y22.1995 Z2.0
G0 Z3.0
G0 X-17.0514 Y22.4934
G1 F300.0 Z2.0
G1 F800.0 X-17.1671 Y22.7934 Z0.0
G1 X-17.0514 Y22.4934 Z2.0
G0 Z3.0
G0 X-17.1671 Y22.7934
G1 F300.0 Z2.0
G1 F800.0 X-17.268 Y23.0986 Z0.0
G1 X-17.1671 Y22.7934 Z2.0
G0 Z3.0
G0 X-17.268 Y23.0986
G1 F300.0 Z2.0
G1 F800.0 X-17.3537 Y23.4085 Z0.0
G1 X-17.268 Y23.0986 Z2.0
G0 Z3.0
G0 X-17.3537 Y23.4085
G1 F300.0 Z2.0
G1 F800.0 X-17.4241 Y23.7222 Z0.0
G1 X-17.3537 Y23.4085 Z2.0
G0 Z3.0
G0 X-17.4241 Y23.7222
G1 F300.0 Z2.0
G1 F800.0 X-17.4791 Y24.0389 Z0.0
G1 X-17.4241 Y23.7222 Z2.0
G0 Z3.0
G0 X-17.4791 Y24.0389
G1 F300.0 Z2.0
G1 F800.0 X-17.5185 Y24.358 Z0.0
G1 X-17.4791 Y24.0389 Z2.0
G0 Z3.0
G0 X-17.5185 Y24.358
G1 F300.0 Z2.0
G1 F800.0 X-17.5421 Y24.6786 Z0.0
G1 X-17.5185 Y24.358 Z2.0
G0 Z3.0
G0 X-17.5421 Y24.6786
G0 Z1.0
G1 F300.0 Z0.0
G1 F800.0 X-17.55 Y25.0 Z2.0
G1 X-17.5421 Y25.3214 Z0.0
G1 X-17.55 Y25.0
G1 X-17.5421 Y24.6786
G0 Z3.0
G0 Y25.3214
G1 F300.0 Z2.0
G1 F800.0 X-17.5185 Y25.642 Z0.0
G1 X-17.5421 Y25.3214 Z2.0
G0 Z3.0
G0 X-17.5185 Y25.642
G1 F300.0 Z2.0
G1 F800.0 X-17.4791 Y25.9611 Z0.0
G1 X-17.5185 Y25.642 Z2.0
G0 Z3.0
G0 X-17.4791 Y25.9611
G1 F300.0 Z2.0
G1 F800.0 X-17.4241 Y26.2778 Z0.0
G1 X-17.4791 Y25.9611 Z2.0
G0 Z3.0
G0 X-17.4241 Y26.2778
G1 F300.0 Z2.0
G1 F800.0 X-17.3537 Y26.5915 Z0.0
G1 X-17.4241 Y26.2778 Z2.0
G0 Z3.0
G0 X-17.3537 Y26.5915
G1 F300.0 Z2.0
G1 F800.0 X-17.268 Y26.9014 Z0.0
G1 X-17.3537 Y26.5915 Z2.0
G0 Z3.0
G0 X-17.268 Y26.9014
G1 F300.0 Z2.0
G1 F800.0 X-17.1671 Y27.2066 Z0.0
G1 X-17.268 Y26.9014 Z2.0
G0 Z3.0
G0 X-17.1671 Y27.2066
G1 F300.0 Z2.0
G1 F800.0 X-17.0514 Y27.5066 Z0.0
G1 X-17.1671 Y27.2066 Z2.0
G0 Z3.0
G0 X-17.0514 Y27.5066
G1 F300.0 Z2.0
G1 F800.0 X-16.9211 Y27.8005 Z0.0
G1 X-17.0514 Y27.5066 Z2.0
G0 Z3.0
G0 X-16.9211 Y27.8005
G1 F300.0 Z2.0
G1 F800.0 X-16.7766 Y28.0876 Z0.0
G1 X-16.9211 Y27.8005 Z2.0
G0 Z3.0
G0 X-16.7766 Y28.0876
G1 F300.0 Z2.0
G1 F800.0 X-16.6181 Y28.3674 Z0.0
G1 X-16.7766 Y28.0876 Z2.0
G0 Z3.0
G0 X-16.6181 Y28.3674
G1 F300.0 Z2.0
G1 F800.0 X-16.4461 Y28.639 Z0.0
G1 X-16.6181 Y28.3674 Z2.0
G0 Z3.0
G0 X-16.4461 Y28.639
G1 F300.0 Z2.0
G1 F800.0 X-16.261 Y28.9018 Z0.0
G1 X-16.4461 Y28.639 Z2.0
G0 Z3.0
G0 X-16.261 Y28.9018
G1 F300.0 Z2.0
G1 F800.0 X-16.0632 Y29.1553 Z0.0
G1 X-16.261 Y28.9018 Z2.0
G0 Z3.0
G0 X-16.0632 Y29.1553
G1 F300.0 Z2.0
G1 F800.0 X-16.0 Y29.2286 Z0.0
G1 X-16.0632 Y29.1553 Z2.0
G0 Z3.0
G0 X-16.0 Y29.2286
G0 Z1.0
G1 F300.0 Z0.0
G1 F800.0 Y30.0
G1 X-15.2286
G1 X-16.0 Z2.0
G1 Y29.2286 Z0.0
G0 Z3.0
G0 X-15.2286 Y30.0
G1 F300.0 Z2.0
G1 F800.0 X-15.1553 Y30.0632 Z0.0
G1 X-15.2286 Y30.0 Z2.0
G0 Z3.0
G0 X-15.1553 Y30.0632
G1 F300.0 Z2.0
G1 F800.0 X-14.9018 Y30.261 Z0.0
G1 X-15.1553 Y30.0632 Z2.0
G0 Z3.0
G0 X-14.9018 Y30.261
G1 F300.0 Z2.0
G1 F800.0 X-14.639 Y30.4461 Z0.0
G1 X-14.9018 Y30.261 Z2.0
G0 Z3.0
G0 X-14.639 Y30.4461
G1 F300.0 Z2.0
G1 F800.0 X-14.3674 Y30.6181 Z0.0
G1 X-14.639 Y30.4461 Z2.0
G0 Z3.0
G0 X-14.3674 Y30.6181
G1 F300.0 Z2.0
G1 F800.0 X-14.0876 Y30.7766 Z0.0
G1 X-14.3674 Y30.6181 Z2.0
G0 Z3.0
G0 X-14.0876 Y30.7766
G1 F300.0 Z2.0
G1 F800.0 X-13.8005 Y30.9211 Z0.0
G1 X-14.0876 Y30.7766 Z2.0
G0 Z3.0
G0 X-13.8005 Y30.9211
G1 F300.0 Z2.0
G1 F800.0 X-13.5066 Y31.0514 Z0.0
G1 X-13.8005 Y30.9211 Z2.0
G0 Z3.0
G0 X-13.5066 Y31.0514
G1 F300.0 Z2.0
G1 F800.0 X-13.2066 Y31.1671 Z0.0
G1 X-13.5066 Y31.0514 Z2.0
G0 Z3.0
G0 X-13.2066 Y31.1671
G1 F300.0 Z2.0
G1 F800.0 X-12.9014 Y31.268 Z0.0
G1 X-13.2066 Y31.1671 Z2.0
G0 Z3.0
G0 X-12.9014 Y31.268
G1 F300.0 Z2.0
G1 F800.0 X-12.5915 Y31.3537 Z0.0
G1 X-12.9014 Y31.268 Z2.0
G0 Z3.0
G0 X-12.5915 Y31.3537
G1 F300.0 Z2.0
G1 F800.0 X-12.2778 Y31.4241 Z0.0
G1 X-12.5915 Y31.3537 Z2.0
G0 Z3.0
G0 X-12.2778 Y31.4241
G1 F300.0 Z2.0
G1 F800.0 X-11.9611 Y31.4791 Z0.0
G1 X-12.2778 Y31.4241 Z2.0
G0 Z3.0
G0 X-11.9611 Y31.4791
G1 F300.0 Z2.0
G1 F800.0 X-11.642 Y31.5185 Z0.0
G1 X-11.9611 Y31.4791 Z2.0
G0 Z3.0
G0 X-11.642 Y31.5185
G1 F300.0 Z2.0
G1 F800.0 X-11.3214 Y31.5421 Z0.0
G1 X-11.642 Y31.5185 Z2.0
G0 Z3.0
G0 X-11.3214 Y31.5421
G0 Z1.0
G1 F300.0 Z0.0
G1 F800.0 X-11.0 Y31.55 Z2.0
G1 X-10.6786 Y31.5421 Z0.0
G1 X-11.0 Y31.55
G1 X-11.3214 Y31.5421
G0 Z3.0
G0 X-10.6786
G1 F300.0 Z2.0
G1 F800.0 X-10.358 Y31.5185 Z0.0
G1 X-10.6786 Y31.5421 Z2.0
G0 Z3.0
G0 X-10.358 Y31.5185
G1 F300.0 Z2.0
G1 F800.0 X-10.0389 Y31.4791 Z0.0
G1 X-10.358 Y31.5185 Z2.0
G0 Z3.0
G0 X-10.0389 Y31.4791
G1 F300.0 Z2.0
G1 F800.0 X-9.7222 Y31.4241 Z0.0
G1 X-10.0389 Y31.4791 Z2.0
G0 Z3.0
G0 X-9.7222 Y31.4241
G1 F300.0 Z2.0
G1 F800.0 X-9.4085 Y31.3537 Z0.0
G1 X-9.7222 Y31.4241 Z2.0
G0 Z3.0
G0 X-9.4085 Y31.3537
G1 F300.0 Z2.0
G1 F800.0 X-9.0986 Y31.268 Z0.0
G1 X-9.4085 Y31.3537 Z2.0
G0 Z3.0
G0 X-9.0986 Y31.268
G1 F300.0 Z2.0
G1 F800.0 X-8.7934 Y31.1671 Z0.0
G1 X-9.0986 Y31.268 Z2.0
G0 Z3.0
G0 X-8.7934 Y31.1671
G1 F300.0 Z2.0
G1 F800.0 X-8.4934 Y31.0514 Z0.0
G1 X-8.7934 Y31.1671 Z2.0
G0 Z3.0
G0 X-8.4934 Y31.0514
G1 F300.0 Z2.0
G1 F800.0 X-8.1995 Y30.9211 Z0.0
G1 X-8.4934 Y31.0514 Z2.0
G0 Z3.0
G0 X-8.1995 Y30.9211
G1 F300.0 Z2.0
G1 F800.0 X-7.9124 Y30.7766 Z0.0
G1 X-8.1995 Y30.9211 Z2.0
G0 Z3.0
G0 X-7.9124 Y30.7766
G1 F300.0 Z2.0
G1 F800.0 X-7.6326 Y30.6181 Z0.0
G1 X-7.9124 Y30.7766 Z2.0
G0 Z3.0
G0 X-7.6326 Y30.6181
G1 F300.0 Z2.0
G1 F800.0 X-7.361 Y30.4461 Z0.0
G1 X-7.6326 Y30.6181 Z2.0
G0 Z3.0
G0 X-7.361 Y30.4461
G1 F300.0 Z2.0
G1 F800.0 X-7.0982 Y30.261 Z0.0
G1 X-7.361 Y30.4461 Z2.0
G0 Z3.0
G0 X-7.0982 Y30.261
G1 F300.0 Z2.0
G1 F800.0 X-6.8447 Y30.0632 Z0.0
G1 X-7.0982 Y30.261 Z2.0
G0 Z3.0
G0 X-6.8447 Y30.0632
G1 F300.0 Z2.0
G1 F800.0 X-6.7714 Y30.0 Z0.0
G1 X-6.8447 Y30.0632 Z2.0
G0 Z3.0
G0 X-6.7714 Y30.0
G1 F300.0 Z2.0
G1 F800.0 X-6.0 Z0.0
G1 X-6.7714 Z2.0
G0 Z3.0
G0 X-6.0
G1 F300.0 Z2.0
G1 F800.0 Y29.2286 Z0.0
G1 Y30.0 Z2.0
G0 Z3.0
G0 Y29.2286
G0 Z1.0
G1 F300.0 Z0.0
G1 F800.0 X-5.9368 Y29.1553 Z2.0
G1 X-6.0 Y29.2286 Z0.0
G0 Z3.0
G0 X-5.9368 Y29.1553
G1 F300.0 Z2.0
G1 F800.0 X-5.8106 Y28.9936 Z0.0
G1 X-5.9368 Y29.1553 Z2.0
G0 Z3.0
G0 X-5.8106 Y28.9936
G1 F300.0 Z2.0
G1 F800.0 X0.4527 Y26.7139 Z0.0
G1 X-5.8106 Y28.9936 Z2.0
G0 Z3.0
G0 X0.4527 Y26.7139
G1 F300.0 Z2.0
G1 F800.0 X0.5442 Y26.7929 Z0.0
G1 X0.4527 Y26.7139 Z2.0
G0 Z3.0
G0 X0.5442 Y26.7929
G1 F300.0 Z2.0
G1 F800.0 X0.877 Y27.0526 Z0.0
G1 X0.5442 Y26.7929 Z2.0
G0 Z3.0
G0 X0.877 Y27.0526
G1 F300.0 Z2.0
G1 F800.0 X1.2221 Y27.2956 Z0.0
G1 X0.877 Y27.0526 Z2.0
G0 Z3.0
G0 X1.2221 Y27.2956
G1 F300.0 Z2.0
G1 F800.0 X1.5787 Y27.5215 Z0.0
G1 X1.2221 Y27.2956 Z2.0
G0 Z3.0
G0 X1.5787 Y27.5215
G1 F300.0 Z2.0
G1 F800.0 X1.946 Y27.7295 Z0.0
G1 X1.5787 Y27.5215 Z2.0
G0 Z3.0
G0 X1.946 Y27.7295
G1 F300.0 Z2.0
G1 F800.0 X2.323 Y27.9193 Z0.0
G1 X1.946 Y27.7295 Z2.0
G0 Z3.0
G0 X2.323 Y27.9193
G1 F300.0 Z2.0
G1 F800.0 X2.7089 Y28.0904 Z0.0
G1 X2.323 Y27.9193 Z2.0
G0 Z3.0
G0 X2.7089 Y28.0904
G1 F300.0 Z2.0
G1 F800.0 X3.1028 Y28.2423 Z0.0
G1 X2.7089 Y28.0904 Z2.0
G0 Z3.0
G0 X3.1028 Y28.2423
G1 F300.0 Z2.0
G1 F800.0 X3.5036 Y28.3747 Z0.0
G1 X3.1028 Y28.2423 Z2.0
G0 Z3.0
G0 X3.5036 Y28.3747
G1 F300.0 Z2.0
G1 F800.0 X3.9104 Y28.4873 Z0.0
G1 X3.5036 Y28.3747 Z2.0
G0 Z3.0
G0 X3.9104 Y28.4873
G1 F300.0 Z2.0
G1 F800.0 X4.3222 Y28.5798 Z0.0
G1 X3.9104 Y28.4873 Z2.0
G0 Z3.0
G0 X4.3222 Y28.5798
G1 F300.0 Z2.0
G1 F800.0 X4.7381 Y28.6519 Z0.0
G1 X4.3222 Y28.5798 Z2.0
G0 Z3.0
G0 X4.7381 Y28.6519
G1 F300.0 Z2.0
G1 F800.0 X5.1571 Y28.7036 Z0.0
G1 X4.7381 Y28.6519 Z2.0
G0 Z3.0
G0 X5.1571 Y28.7036
G1 F300.0 Z2.0
G1 F800.0 X5.578 Y28.7346 Z0.0
G1 X5.1571 Y28.7036 Z2.0
G0 Z3.0
G0 X5.578 Y28.7346
G0 Z1.0
G1 F300.0 Z0.0
G1 F800.0 X6.0 Y28.745 Z2.0
G1 X6.422 Y28.7346 Z0.0
G1 X6.0 Y28.745
G1 X5.578 Y28.7346
G0 Z3.0
G0 X6.422
G1 F300.0 Z2.0
G1 F800.0 X6.843 Y28.7036 Z0.0
G1 X6.422 Y28.7346 Z2.0
G0 Z3.0
G0 X6.843 Y28.7036
G1 F300.0 Z2.0
G1 F800.0 X7.2619 Y28.6519 Z0.0
G1 X6.843 Y28.7036 Z2.0
G0 Z3.0
G0 X7.2619 Y28.6519
G1 F300.0 Z2.0
G1 F800.0 X7.6778 Y28.5798 Z0.0
G1 X7.2619 Y28.6519 Z2.0
G0 Z3.0
G0 X7.6778 Y28.5798
G1 F300.0 Z2.0
G1 F800.0 X8.0896 Y28.4873 Z0.0
G1 X7.6778 Y28.5798 Z2.0
G0 Z3.0
G0 X8.0896 Y28.4873
G1 F300.0 Z2.0
G1 F800.0 X8.4965 Y28.3747 Z0.0
G1 X8.0896 Y28.4873 Z2.0
G0 Z3.0
G0 X8.4965 Y28.3747
G1 F300.0 Z2.0
G1 F800.0 X8.8973 Y28.2423 Z0.0
G1 X8.4965 Y28.3747 Z2.0
G0 Z3.0
G0 X8.8973 Y28.2423
G1 F300.0 Z2.0
G1 F800.0 X9.2911 Y28.0904 Z0.0
G1 X8.8973 Y28.2423 Z2.0
G0 Z3.0
G0 X9.2911 Y28.0904
G1 F300.0 Z2.0
G1 F800.0 X9.677 Y27.9193 Z0.0
G1 X9.2911 Y28.0904 Z2.0
G0 Z3.0
G0 X9.677 Y27.9193
G1 F300.0 Z2.0
G1 F800.0 X10.054 Y27.7295 Z0.0
G1 X9.677 Y27.9193 Z2.0
G0 Z3.0
G0 X10.054 Y27.7295
G1 F300.0 Z2.0
G1 F800.0 X10.4213 Y27.5215 Z0.0
G1 X10.054 Y27.7295 Z2.0
G0 Z3.0
G0 X10.4213 Y27.5215
G1 F300.0 Z2.0
G1 F800.0 X10.7779 Y27.2956 Z0.0
G1 X10.4213 Y27.5215 Z2.0
G0 Z3.0
G0 X10.7779 Y27.2956
G1 F300.0 Z2.0
G1 F800.0 X11.123 Y27.0526 Z0.0
G1 X10.7779 Y27.2956 Z2.0
G0 Z3.0
G0 X11.123 Y27.0526
G1 F300.0 Z2.0
G1 F800.0 X11.4558 Y26.7929 Z0.0
G1 X11.123 Y27.0526 Z2.0
G0 Z3.0
G0 X11.4558 Y26.7929
G1 F300.0 Z2.0
G1 F800.0 X11.7754 Y26.5172 Z0.0
G1 X11.4558 Y26.7929 Z2.0
G0 Z3.0
G0 X11.7754 Y26.5172
G1 F300.0 Z2.0
G1 F800.0 X12.0811 Y26.2261 Z0.0
G1 X11.7754 Y26.5172 Z2.0
G0 Z3.0
G0 X12.0811 Y26.2261
G1 F300.0 Z2.0
G1 F800.0 X12.3722 Y25.9204 Z0.0
G1 X12.0811 Y26.2261 Z2.0
G0 Z3.0
G0 X12.3722 Y25.9204
G1 F300.0 Z2.0
G1 F800.0 X12.6479 Y25.6008 Z0.0
G1 X12.3722 Y25.9204 Z2.0
G0 Z3.0
G0 X12.6479 Y25.6008
G1 F300.0 Z2.0
G1 F800.0 X12.9076 Y25.268 Z0.0
G1 X12.6479 Y25.6008 Z2.0
G0 Z3.0
G0 X12.9076 Y25.268
G1 F300.0 Z2.0
G1 F800.0 X13.1506 Y24.9229 Z0.0
G1 X12.9076 Y25.268 Z2.0
G0 Z3.0
G0 X13.1506 Y24.9229
G1 F300.0 Z2.0
G1 F800.0 X13.3765 Y24.5663 Z0.0
G1 X13.1506 Y24.9229 Z2.0
G0 Z3.0
G0 X13.3765 Y24.5663
G1 F300.0 Z2.0
G1 F800.0 X13.5845 Y24.199 Z0.0
G1 X13.3765 Y24.5663 Z2.0
G0 Z3.0
G0 X13.5845 Y24.199
G1 F300.0 Z2.0
G1 F800.0 X13.7743 Y23.822 Z0.0
G1 X13.5845 Y24.199 Z2.0
G0 Z3.0
G0 X13.7743 Y23.822
G1 F300.0 Z2.0
G1 F800.0 X13.9454 Y23.4361 Z0.0
G1 X13.7743 Y23.822 Z2.0
G0 Z3.0
G0 X13.9454 Y23.4361
G1 F300.0 Z2.0
G1 F800.0 X14.0973 Y23.0423 Z0.0
G1 X13.9454 Y23.4361 Z2.0
G0 Z3.0
G0 X14.0973 Y23.0423
G1 F300.0 Z2.0
G1 F800.0 X14.2297 Y22.6414 Z0.0
G1 X14.0973 Y23.0423 Z2.0
G0 Z3.0
G0 X14.2297 Y22.6414
G1 F300.0 Z2.0
G1 F800.0 X14.3423 Y22.2346 Z0.0
G1 X14.2297 Y22.6414 Z2.0
G0 Z3.0
G0 X14.3423 Y22.2346
G1 F300.0 Z2.0
G1 F800.0 X14.4348 Y21.8228 Z0.0
G1 X14.3423 Y22.2346 Z2.0
G0 Z3.0
G0 X14.4348 Y21.8228
G1 F300.0 Z2.0
G1 F800.0 X14.5069 Y21.4069 Z0.0
G1 X14.4348 Y21.8228 Z2.0
G0 Z3.0
G0 X14.5069 Y21.4069
G1 F300.0 Z2.0
G1 F800.0 X14.5586 Y20.9879 Z0.0
G1 X14.5069 Y21.4069 Z2.0
G0 Z3.0
G0 X14.5586 Y20.9879
G1 F300.0 Z2.0
G1 F800.0 X14.5896 Y20.567 Z0.0
G1 X14.5586 Y20.9879 Z2.0
G0 Z3.0
G0 X14.5896 Y20.567
G0 Z1.0
G1 F300.0 Z0.0
G1 F800.0 X14.6 Y20.145 Z2.0
G1 X14.5896 Y19.723 Z0.0
G1 X14.6 Y20.145
G1 X14.5896 Y20.567
G0 Z3.0
G0 Y19.723
G1 F300.0 Z2.0
G1 F800.0 X14.5586 Y19.3021 Z0.0
G1 X14.5896 Y19.723 Z2.0
G0 Z3.0
G0 X14.5586 Y19.3021
G1 F300.0 Z2.0
G1 F800.0 X14.5069 Y18.8831 Z0.0
G1 X14.5586 Y19.3021 Z2.0
G0 Z3.0
G0 X14.5069 Y18.8831
G1 F300.0 Z2.0
G1 F800.0 X14.4348 Y18.4672 Z0.0
G1 X14.5069 Y18.8831 Z2.0
G0 Z3.0
G0 X14.4348 Y18.4672
G1 F300.0 Z2.0
G1 F800.0 X14.3423 Y18.0554 Z0.0
G1 X14.4348 Y18.4672 Z2.0
G0 Z3.0
G0 X14.3423 Y18.0554
G1 F300.0 Z2.0
G1 F800.0 X14.2297 Y17.6486 Z0.0
G1 X14.3423 Y18.0554 Z2.0
G0 Z3.0
G0 X14.2297 Y17.6486
G1 F300.0 Z2.0
G1 F800.0 X14.0973 Y17.2477 Z0.0
G1 X14.2297 Y17.6486 Z2.0
G0 Z3.0
G0 X14.0973 Y17.2477
G1 F300.0 Z2.0
G1 F800.0 X13.9454 Y16.8539 Z0.0
G1 X14.0973 Y17.2477 Z2.0
G0 Z3.0
G0 X13.9454 Y16.8539
G1 F300.0 Z2.0
G1 F800.0 X13.7743 Y16.468 Z0.0
G1 X13.9454 Y16.8539 Z2.0
G0 Z3.0
G0 X13.7743 Y16.468
G1 F300.0 Z2.0
G1 F800.0 X13.5845 Y16.091 Z0.0
G1 X13.7743 Y16.468 Z2.0
G0 Z3.0
G0 X13.5845 Y16.091
G1 F300.0 Z2.0
G1 F800.0 X13.3765 Y15.7237 Z0.0
G1 X13.5845 Y16.091 Z2.0
G0 Z3.0
G0 X13.3765 Y15.7237
G1 F300.0 Z2.0
G1 F800.0 X13.1506 Y15.3671 Z0.0
G1 X13.3765 Y15.7237 Z2.0
G0 Z3.0
G0 X13.1506 Y15.3671
G1 F300.0 Z2.0
G1 F800.0 X12.9076 Y15.022 Z0.0
G1 X13.1506 Y15.3671 Z2.0
G0 Z3.0
G0 X12.9076 Y15.022
G1 F300.0 Z2.0
G1 F800.0 X12.6479 Y14.6892 Z0.0
G1 X12.9076 Y15.022 Z2.0
G0 Z3.0
G0 X12.6479 Y14.6892
G1 F300.0 Z2.0
G1 F800.0 X12.569 Y14.5978 Z0.0
G1 X12.6479 Y14.6892 Z2.0
G0 Z3.0
G0 X12.569 Y14.5978
G1 F300.0 Z2.0
G1 F800.0 X25.3084 Y-12.722 Z0.0
G1 X12.569 Y14.5978 Z2.0
G0 Z3.0
G0 X25.3084 Y-12.722
G1 F300.0 Z2.0
G1 F800.0 X25.6399 Y-12.6811 Z0.0
G1 X25.3084 Y-12.722 Z2.0
G0 Z3.0
G0 X25.6399 Y-12.6811
G1 F300.0 Z2.0
G1 F800.0 X26.007 Y-12.654 Z0.0
G1 X25.6399 Y-12.6811 Z2.0
G0 Z3.0
G0 X26.007 Y-12.654
G0 Z1.0
G1 F300.0 Z0.0
G1 F800.0 X26.375 Y-12.645 Z2.0
G1 X26.743 Y-12.654 Z0.0
G1 X26.375 Y-12.645
G1 X26.007 Y-12.654
G0 Z3.0
G0 X26.743
G1 F300.0 Z2.0
G1 F800.0 X27.1101 Y-12.6811 Z0.0
G1 X26.743 Y-12.654 Z2.0
G0 Z3.0
G0 X27.1101 Y-12.6811
G1 F300.0 Z2.0
G1 F800.0 X27.4755 Y-12.7262 Z0.0
G1 X27.1101 Y-12.6811 Z2.0
G0 Z3.0
G0 X27.4755 Y-12.7262
G1 F300.0 Z2.0
G1 F800.0 X27.8382 Y-12.7891 Z0.0
G1 X27.4755 Y-12.7262 Z2.0
G0 Z3.0
G0 X27.8382 Y-12.7891
G1 F300.0 Z2.0
G1 F800.0 X28.1973 Y-12.8698 Z0.0
G1 X27.8382 Y-12.7891 Z2.0
G0 Z3.0
G0 X28.1973 Y-12.8698
G1 F300.0 Z2.0
G1 F800.0 X28.5521 Y-12.9679 Z0.0
G1 X28.1973 Y-12.8698 Z2.0
G0 Z3.0
G0 X28.5521 Y-12.9679
G1 F300.0 Z2.0
G1 F800.0 X28.9017 Y-13.0834 Z0.0
G1 X28.5521 Y-12.9679 Z2.0
G0 Z3.0
G0 X28.9017 Y-13.0834
G1 F300.0 Z2.0
G1 F800.0 X29.2451 Y-13.2159 Z0.0
G1 X28.9017 Y-13.0834 Z2.0
G0 Z3.0
G0 X29.2451 Y-13.2159
G1 F300.0 Z2.0
G1 F800.0 X29.5817 Y-13.3651 Z0.0
G1 X29.2451 Y-13.2159 Z2.0
G0 Z3.0
G0 X29.5817 Y-13.3651
G1 F300.0 Z2.0
G1 F800.0 X29.9105 Y-13.5306 Z0.0
G1 X29.5817 Y-13.3651 Z2.0
G0 Z3.0
G0 X29.9105 Y-13.5306
G1 F300.0 Z2.0
G1 F800.0 X30.2308 Y-13.712 Z0.0
G1 X29.9105 Y-13.5306 Z2.0
G0 Z3.0
G0 X30.2308 Y-13.712
G1 F300.0 Z2.0
G1 F800.0 X30.5418 Y-13.909 Z0.0
G1 X30.2308 Y-13.712 Z2.0
G0 Z3.0
G0 X30.5418 Y-13.909
G1 F300.0 Z2.0
G1 F800.0 X30.8427 Y-14.1209 Z0.0
G1 X30.5418 Y-13.909 Z2.0
G0 Z3.0
G0 X30.8427 Y-14.1209
G1 F300.0 Z2.0
G1 F800.0 X31.1329 Y-14.3474 Z0.0
G1 X30.8427 Y-14.1209 Z2.0
G0 Z3.0
G0 X31.1329 Y-14.3474
G1 F300.0 Z2.0
G1 F800.0 X31.4117 Y-14.5879 Z0.0
G1 X31.1329 Y-14.3474 Z2.0
G0 Z3.0
G0 X31.4117 Y-14.5879
G1 F300.0 Z2.0
G1 F800.0 X31.6783 Y-14.8417 Z0.0
G1 X31.4117 Y-14.5879 Z2.0
G0 Z3.0
G0 X31.6783 Y-14.8417
G1 F300.0 Z2.0
G1 F800.0 X31.9321 Y-15.1083 Z0.0
G1 X31.6783 Y-14.8417 Z2.0
G0 Z3.0
G0 X31.9321 Y-15.1083
G1 F300.0 Z2.0
G1 F800.0 X32.1726 Y-15.387 Z0.0
G1 X31.9321 Y-15.1083 Z2.0
G0 Z3.0
G0 X32.1726 Y-15.387
G1 F300.0 Z2.0
G1 F800.0 X32.3991 Y-15.6773 Z0.0
G1 X32.1726 Y-15.387 Z2.0
G0 Z3.0
G0 X32.3991 Y-15.6773
G1 F300.0 Z2.0
G1 F800.0 X32.611 Y-15.9782 Z0.0
G1 X32.3991 Y-15.6773 Z2.0
G0 Z3.0
G0 X32.611 Y-15.9782
G1 F300.0 Z2.0
G1 F800.0 X32.808 Y-16.2892 Z0.0
G1 X32.611 Y-15.9782 Z2.0
G0 Z3.0
G0 X32.808 Y-16.2892
G1 F300.0 Z2.0
G1 F800.0 X32.9894 Y-16.6095 Z0.0
G1 X32.808 Y-16.2892 Z2.0
G0 Z3.0
G0 X32.9894 Y-16.6095
G1 F300.0 Z2.0
G1 F800.0 X33.1549 Y-16.9383 Z0.0
G1 X32.9894 Y-16.6095 Z2.0
G0 Z3.0
G0 X33.1549 Y-16.9383
G1 F300.0 Z2.0
G1 F800.0 X33.3041 Y-17.2749 Z0.0
G1 X33.1549 Y-16.9383 Z2.0
G0 Z3.0
G0 X33.3041 Y-17.2749
G1 F300.0 Z2.0
G1 F800.0 X33.4366 Y-17.6183 Z0.0
G1 X33.3041 Y-17.2749 Z2.0
G0 Z3.0
G0 X33.4366 Y-17.6183
G1 F300.0 Z2.0
G1 F800.0 X33.5521 Y-17.9679 Z0.0
G1 X33.4366 Y-17.6183 Z2.0
G0 Z3.0
G0 X33.5521 Y-17.9679
G1 F300.0 Z2.0
G1 F800.0 X33.6502 Y-18.3226 Z0.0
G1 X33.5521 Y-17.9679 Z2.0
G0 Z3.0
G0 X33.6502 Y-18.3226
G1 F300.0 Z2.0
G1 F800.0 X33.7309 Y-18.6818 Z0.0
G1 X33.6502 Y-18.3226 Z2.0
G0 Z3.0
G0 X33.7309 Y-18.6818
G1 F300.0 Z2.0
G1 F800.0 X33.7938 Y-19.0445 Z0.0
G1 X33.7309 Y-18.6818 Z2.0
G0 Z3.0
G0 X33.7938 Y-19.0445
G1 F300.0 Z2.0
G1 F800.0 X33.8389 Y-19.4099 Z0.0
G1 X33.7938 Y-19.0445 Z2.0
G0 Z3.0
G0 X33.8389 Y-19.4099
G1 F300.0 Z2.0
G1 F800.0 X33.866 Y-19.777 Z0.0
G1 X33.8389 Y-19.4099 Z2.0
G0 Z3.0
G0 X33.866 Y-19.777
G1 F300.0 Z2.0
G1 F800.0 X33.875 Y-20.145 Z0.0
G1 X33.866 Y-19.777 Z2.0
G0 Z3.0
G0 X33.875 Y-20.145
G1 F300.0 Z2.0
G1 F800.0 X33.866 Y-20.513 Z0.0
G1 X33.875 Y-20.145 Z2.0
G0 Z3.0
G0 X33.866 Y-20.513
G1 F300.0 Z2.0
G1 F800.0 X33.8389 Y-20.8801 Z0.0
G1 X33.866 Y-20.513 Z2.0
G0 Z3.0
G0 X33.8389 Y-20.8801
G1 F300.0 Z2.0
G1 F800.0 X33.7938 Y-21.2455 Z0.0
G1 X33.8389 Y-20.8801 Z2.0
G0 Z3.0
G0 X33.7938 Y-21.2455
G1 F300.0 Z2.0
G1 F800.0 X33.7309 Y-21.6082 Z0.0
G1 X33.7938 Y-21.2455 Z2.0
G0 Z3.0
G0 X33.7309 Y-21.6082
G1 F300.0 Z2.0
G1 F800.0 X33.6502 Y-21.9674 Z0.0
G1 X33.7309 Y-21.6082 Z2.0
G0 Z3.0
G0 X33.6502 Y-21.9674
G1 F300.0 Z2.0
G1 F800.0 X33.5521 Y-22.3221 Z0.0
G1 X33.6502 Y-21.9674 Z2.0
G0 Z3.0
G0 X33.5521 Y-22.3221
G1 F300.0 Z2.0
G1 F800.0 X33.4366 Y-22.6717 Z0.0
G1 X33.5521 Y-22.3221 Z2.0
G0 Z3.0
G0 X33.4366 Y-22.6717
G1 F300.0 Z2.0
G1 F800.0 X33.3041 Y-23.0151 Z0.0
G1 X33.4366 Y-22.6717 Z2.0
G0 Z3.0
G0 X33.3041 Y-23.0151
G1 F300.0 Z2.0
G1 F800.0 X33.1549 Y-23.3517 Z0.0
G1 X33.3041 Y-23.0151 Z2.0
G0 Z3.0
G0 X33.1549 Y-23.3517
G1 F300.0 Z2.0
G1 F800.0 X32.9894 Y-23.6805 Z0.0
G1 X33.1549 Y-23.3517 Z2.0
G0 Z3.0
G0 X32.9894 Y-23.6805
G1 F300.0 Z2.0
G1 F800.0 X32.808 Y-24.0008 Z0.0
G1 X32.9894 Y-23.6805 Z2.0
G0 Z3.0
G0 X32.808 Y-24.0008
G1 F300.0 Z2.0
G1 F800.0 X32.611 Y-24.3118 Z0.0
G1 X32.808 Y-24.0008 Z2.0
G0 Z3.0
G0 X32.611 Y-24.3118
G1 F300.0 Z2.0
G1 F800.0 X32.3991 Y-24.6127 Z0.0
G1 X32.611 Y-24.3118 Z2.0
G0 Z3.0
G0 X32.3991 Y-24.6127
G1 F300.0 Z2.0
G1 F800.0 X32.1726 Y-24.903 Z0.0
G1 X32.3991 Y-24.6127 Z2.0
G0 Z3.0
G0 X32.1726 Y-24.903
G1 F300.0 Z2.0
G1 F800.0 X31.9321 Y-25.1817 Z0.0
G1 X32.1726 Y-24.903 Z2.0
G0 Z3.0
G0 X31.9321 Y-25.1817
G1 F300.0 Z2.0
G1 F800.0 X31.6783 Y-25.4483 Z0.0
G1 X31.9321 Y-25.1817 Z2.0
G0 Z3.0
G0 X31.6783 Y-25.4483
G1 F300.0 Z2.0
G1 F800.0 X31.4117 Y-25.7021 Z0.0
G1 X31.6783 Y-25.4483 Z2.0
G0 Z3.0
G0 X31.4117 Y-25.7021
G1 F300.0 Z2.0
G1 F800.0 X31.1329 Y-25.9426 Z0.0
G1 X31.4117 Y-25.7021 Z2.0
G0 Z3.0
G0 X31.1329 Y-25.9426
G1 F300.0 Z2.0
G1 F800.0 X30.8427 Y-26.1691 Z0.0
G1 X31.1329 Y-25.9426 Z2.0
G0 Z3.0
G0 X30.8427 Y-26.1691
G1 F300.0 Z2.0
G1 F800.0 X30.5418 Y-26.381 Z0.0
G1 X30.8427 Y-26.1691 Z2.0
G0 Z3.0
G0 X30.5418 Y-26.381
G1 F300.0 Z2.0
G1 F800.0 X30.2308 Y-26.578 Z0.0
G1 X30.5418 Y-26.381 Z2.0
G0 Z3.0
G0 X30.2308 Y-26.578
G1 F300.0 Z2.0
G1 F800.0 X29.9105 Y-26.7594 Z0.0
G1 X30.2308 Y-26.578 Z2.0
G0 Z3.0
G0 X29.9105 Y-26.7594
G1 F300.0 Z2.0
G1 F800.0 X29.5817 Y-26.9249 Z0.0
G1 X29.9105 Y-26.7594 Z2.0
G0 Z3.0
G0 X29.5817 Y-26.9249
G1 F300.0 Z2.0
G1 F800.0 X29.2451 Y-27.0741 Z0.0
G1 X29.5817 Y-26.9249 Z2.0
G0 Z3.0
G0 X29.2451 Y-27.0741
G1 F300.0 Z2.0
G1 F800.0 X28.9017 Y-27.2066 Z0.0
G1 X29.2451 Y-27.0741 Z2.0
G0 Z3.0
G0 X28.9017 Y-27.2066
G1 F300.0 Z2.0
G1 F800.0 X28.5521 Y-27.3221 Z0.0
G1 X28.9017 Y-27.2066 Z2.0
G0 Z3.0
G0 X28.5521 Y-27.3221
G1 F300.0 Z2.0
G1 F800.0 X28.1973 Y-27.4202 Z0.0
G1 X28.5521 Y-27.3221 Z2.0
G0 Z3.0
G0 X28.1973 Y-27.4202
G1 F300.0 Z2.0
G1 F800.0 X27.8382 Y-27.5009 Z0.0
G1 X28.1973 Y-27.4202 Z2.0
G0 Z3.0
G0 X27.8382 Y-27.5009
G1 F300.0 Z2.0
G1 F800.0 X27.4755 Y-27.5638 Z0.0
G1 X27.8382 Y-27.5009 Z2.0
G0 Z3.0
G0 X27.4755 Y-27.5638
G1 F300.0 Z2.0
G1 F800.0 X27.1101 Y-27.6089 Z0.0
G1 X27.4755 Y-27.5638 Z2.0
G0 Z3.0
G0 X27.1101 Y-27.6089
G1 F300.0 Z2.0
G1 F800.0 X26.743 Y-27.636 Z0.0
G1 X27.1101 Y-27.6089 Z2.0
G0 Z3.0
G0 X26.743 Y-27.636
G0 Z1.0
G1 F300.0 Z0.0
G1 F800.0 X26.375 Y-27.645 Z2.0
G1 X26.007 Y-27.636 Z0.0
G1 X26.375 Y-27.645
G1 X26.743 Y-27.636
G0 Z3.0
G0 X26.007
G1 F300.0 Z2.0
G1 F800.0 X25.6399 Y-27.6089 Z0.0
G1 X26.007 Y-27.636 Z2.0
G0 Z3.0
G0 X25.6399 Y-27.6089
G1 F300.0 Z2.0
G1 F800.0 X25.2745 Y-27.5638 Z0.0
G1 X25.6399 Y-27.6089 Z2.0
G0 Z3.0
G0 X25.2745 Y-27.5638
G1 F300.0 Z2.0
G1 F800.0 X24.9118 Y-27.5009 Z0.0
G1 X25.2745 Y-27.5638 Z2.0
G0 Z3.0
G0 X24.9118 Y-27.5009
G1 F300.0 Z2.0
G1 F800.0 X24.5526 Y-27.4202 Z0.0
G1 X24.9118 Y-27.5009 Z2.0
G0 Z3.0
G0 X24.5526 Y-27.4202
G1 F300.0 Z2.0
G1 F800.0 X24.1979 Y-27.3221 Z0.0
G1 X24.5526 Y-27.4202 Z2.0
G0 Z3.0
G0 X24.1979 Y-27.3221
G1 F300.0 Z2.0
G1 F800.0 X23.8483 Y-27.2066 Z0.0
G1 X24.1979 Y-27.3221 Z2.0
G0 Z3.0
G0 X23.8483 Y-27.2066
G1 F300.0 Z2.0
G1 F800.0 X23.5049 Y-27.0741 Z0.0
G1 X23.8483 Y-27.2066 Z2.0
G0 Z3.0
G0 X23.5049 Y-27.0741
G1 F300.0 Z2.0
G1 F800.0 X23.1683 Y-26.9249 Z0.0
G1 X23.5049 Y-27.0741 Z2.0
G0 Z3.0
G0 X23.1683 Y-26.9249
G1 F300.0 Z2.0
G1 F800.0 X22.8395 Y-26.7594 Z0.0
G1 X23.1683 Y-26.9249 Z2.0
G0 Z3.0
G0 X22.8395 Y-26.7594
G1 F300.0 Z2.0
G1 F800.0 X22.5192 Y-26.578 Z0.0
G1 X22.8395 Y-26.7594 Z2.0
G0 Z3.0
G0 X22.5192 Y-26.578
G1 F300.0 Z2.0
G1 F800.0 X22.2082 Y-26.381 Z0.0
G1 X22.5192 Y-26.578 Z2.0
G0 Z3.0
G0 X22.2082 Y-26.381
G1 F300.0 Z2.0
G1 F800.0 X21.9073 Y-26.1691 Z0.0
G1 X22.2082 Y-26.381 Z2.0
G0 Z3.0
G0 X21.9073 Y-26.1691
G1 F300.0 Z2.0
G1 F800.0 X21.6171 Y-25.9426 Z0.0
G1 X21.9073 Y-26.1691 Z2.0
G0 Z3.0
G0 X21.6171 Y-25.9426
G1 F300.0 Z2.0
G1 F800.0 X21.3383 Y-25.7021 Z0.0
G1 X21.6171 Y-25.9426 Z2.0
G0 Z3.0
G0 X21.3383 Y-25.7021
G1 F300.0 Z2.0
G1 F800.0 X21.0717 Y-25.4483 Z0.0
G1 X21.3383 Y-25.7021 Z2.0
G0 Z3.0
G0 X21.0717 Y-25.4483
G1 F300.0 Z2.0
G1 F800.0 X20.8179 Y-25.1817 Z0.0
G1 X21.0717 Y-25.4483 Z2.0
G0 Z3.0
G0 X20.8179 Y-25.1817
G1 F300.0 Z2.0
G1 F800.0 X20.7862 Y-25.145 Z0.0
G1 X20.8179 Y-25.1817 Z2.0
G0 Z3.0
G0 X-35.375 Y-5.0
G1 F300.0 Z2.0
G1 F800.0 Y5.0 Z0.0
G1 Y-5.0 Z2.0
G0 Z3.0
M5
M30
